X:1
T:San Andreas, 76.76 D
T:San Andreas, 76.76 D
T:James Holmes Rosecrans, 1899
T:Public Domain Courtesy of the Cyber Hymnal™
C:James Holmes Rosecrans, 1899
Z:Public Domain
Z:Courtesy of the Cyber Hymnal™
%%score ( 1 2 ) ( 3 4 )
L:1/8
Q:1/4=97
M:3/4
K:C
V:1 treble 
V:2 treble 
V:3 bass 
V:4 bass 
V:1
 [EG]2 | [EG]3 [Ec] [CE][DF] | [FA]2 [EG]2 [EG]2 | [FB]3 [FA] [EG][DF] | [CE]4 [CE]2 | %5
 [CA]3 [CE] [CA][EB] | [Ec]2 [Ec]2 [Ee]2 | [Gd]3 [Dc] [GB][^FA] | G4 [EG]2 | [Fd]3 [FG] [FA][FB] | %10
 [Ec]2 [Ec]2 [EG]2 | [Fd]3 [FG] [FA][FB] | [Ec]4 [EG]2 | [Ec]3 [CE] [DF][EG] | [FA]2 [Ac]2 [Ad]2 | %15
 [Ge]3 [Ec] [DB][Fd] | [Ec]4 |] %17
V:2
 x2 | x6 | x6 | x6 | x6 | x6 | x6 | x6 | G4 x2 | x6 | x6 | x6 | x6 | x6 | x6 | x6 | x4 |] %17
V:3
 [C,C]2 | [C,C]3 [C,G,] [C,G,][C,G,] | [C,C]2 [C,C]2 [C,C]2 | G,3 G, [G,,G,][G,,G,] | %4
 [C,G,]4 [C,G,]2 | [A,,A,]3 [A,,A,] [A,,A,][E,^G,] | A,2 A,2 [C,C]2 | [D,B,]3 [D,A,] [D,D][D,C] | %8
 [G,B,]4 [G,C]2 | [G,B,]3 [G,B,] G,G, | [C,G,]2 [C,G,]2 [G,C]2 | [G,B,]3 [G,B,] G,G, | %12
 [C,G,]4 [C,C]2 | [C,G,]3 [C,G,] [C,G,][C,C] | [F,C]2 [F,C]2 [^F,C]2 | [G,C]3 G, G,G, | [C,G,]4 |] %17
V:4
 x2 | x6 | x6 | G,3 G, x2 | x6 | x6 | A,2 A,2 x2 | x6 | x6 | x4 G,G, | x6 | x4 G,G, | x6 | x6 | %14
 x6 | x3 G, G,G, | x4 |] %17

